X:567
T:Up and away
R:Polka
O:Ireland
B:Irish Traditional Music Session Tunes 3 n47
S:???
Z:Transcription (?), arrangement (?), chords:Mike Long
M:2/4
L:1/8
K:G
"G"d>c B>A|B/A/B/c/ BD|"D"A>B A/F/D/F/|"C/G"AG "(D)"G/A/B/c/|\
"G"d>c B>A|B/A/B/c/ BD|
"D"A>B A/F/D/F/|"G"AG G2:|\
|:"G"b/a/g/f/ "C"a/g/f/e/|"G"dB B/A/B|"D"dA A/G/A|
"G"DG G/F/G|\
"G"b/a/g/f/ "C"a/g/f/e/|"G"dB B/A/B|"D"dA AB|"G"AG G2:|
